dist/images/nav-read.svg

<svg width="24" height="24" viewBox="0 0 24 24" fill="none" xmlns="http://www.w3.org/2000/svg">
<path fill-rule="evenodd" clip-rule="evenodd" d="M21 17.8408V1.36344C18.577 0.552759 14.8867 1.10507 13.2044 2.95241V20C15.12 18.3607 18.2437 17.0259 21 17.8408ZM6.38873 1.00188C5.50572 1.00183 4.67197 1.12489 4 1.36344V17.8408C6.75668 17.026 9.87998 18.3606 11.7956 20V2.95255C10.6043 1.62368 8.37309 1.00197 6.38873 1.00188Z" fill="#D5DFF2"/>
<path fill-rule="evenodd" clip-rule="evenodd" d="M3.8947 19.3752C3.01847 19.6326 2.09634 18.9399 2.10938 18.03V3C1.51942 3.18142 0.944935 3.40919 0.391359 3.68115C0.273858 3.73888 0.174945 3.82809 0.105789 3.93871C0.0366336 4.04933 -8.78578e-06 4.17695 1.58013e-09 4.30717V21.3015C-1.75731e-08 21.4116 0.0262054 21.5201 0.0764781 21.6183C0.126751 21.7164 0.199666 21.8013 0.289275 21.8661C0.378885 21.931 0.482649 21.9738 0.592101 21.9912C0.701553 22.0086 0.813593 22 0.919078 21.9662C4.09969 20.9467 7.22105 20.8752 10.9329 21.7522C9.37477 20.198 6.41953 18.6169 3.8947 19.3752ZM23.6086 3.68115C23.0551 3.40922 22.4806 3.18151 21.8906 3.00019V18.03C21.9034 18.9404 20.9816 19.6325 20.1052 19.3752C17.5803 18.6169 14.6253 20.198 13.0671 21.7522C16.779 20.8753 19.9004 20.9468 23.0809 21.9662C23.1864 22.0001 23.2984 22.0086 23.4079 21.9912C23.5174 21.9739 23.6211 21.931 23.7107 21.8662C23.8003 21.8014 23.8732 21.7164 23.9235 21.6183C23.9738 21.5202 24 21.4116 24 21.3015V4.30717C24 4.17695 23.9634 4.04933 23.8942 3.93871C23.8251 3.82809 23.7261 3.73888 23.6086 3.68115Z" fill="#D5DFF2"/>
</svg>

<svg width="24" height="24" fill="none" xmlns="http://www.w3.org/2000/svg"><path fill-rule="evenodd" clip-rule="evenodd" d="M21 17.84V1.364c-2.423-.81-6.113-.258-7.796 1.59V20c1.916-1.64 5.04-2.974 7.796-2.16zM6.389 1.003c-.883 0-1.717.123-2.389.361v16.478c2.757-.815 5.88.52 7.796 2.159V2.953c-1.192-1.33-3.423-1.951-5.407-1.951z" fill="#D5DFF2"/><path fill-rule="evenodd" clip-rule="evenodd" d="M3.895 19.375c-.877.258-1.799-.435-1.786-1.345V3c-.59.181-1.164.41-1.718.681A.701.701 0 000 4.307v16.995a.695.695 0 00.592.69.71.71 0 00.327-.026c3.18-1.02 6.302-1.09 10.014-.214-1.558-1.554-4.513-3.135-7.038-2.377zM23.609 3.681c-.554-.272-1.128-.5-1.718-.68V18.03c.012.91-.91 1.602-1.786 1.345-2.525-.758-5.48.823-7.038 2.377 3.712-.877 6.833-.805 10.014.214a.706.706 0 00.843-.348.694.694 0 00.076-.316V4.306a.695.695 0 00-.391-.626z" fill="#D5DFF2"/></svg>
